drop_it = do
  -- this midi will select the video
  d1  $ ccv "<[1 ~ ~ 0 ~  ~ 4 ~] [~ 0 3 ~  0 3 2 [0 2]]>" # ccn "0" # s "midi"
  -- the rest is for sound
  d2 $ s "~ cp" # gain 1.2 # room 0.5
  d3 $ s "<feel:6(3,8) feel:6(5,8,1)>" # room 0.95 # speed "2 1" # gain 1.3 # squiz 1.1 # up "-2"

drop_it
