drop_it = do
  -- this midi will select the video
  d1 $ ccv "<[1 ~ ~ 0 ~  ~ 2 ~] [~ 4 3 ~  <0 4> <2 ~> ~ <0 ~>]>" # ccn "0" # s "midi"
  -- the rest is for sound
  d2 $ s "~ cp" # gain 1.2 # room 0.5
  d3 $ whenmod 4 3 (trunc 0.5) $ s "<feel:6(3,8) feel:6(5,8,1)>" # room 0.95 # speed ("1") # krush 10 # note ("c6 b g c4 e c" + 24)

drop_it
